X:2
T:Springleik i C og "G" (#2)     % name
C:e. Tormod Steren, Folldal     % composer
N:Springleik fr. Folldal     % info
Q:1/4=120     %Tempo
M:3/4     %Meter
L:1/8     %
K:C
G3/2F/ (E<C) (E>G) | {E}FD/F/ (E<C) E>G | (c>B c<)d e2 | {f}ge/g/ ^f/(d/f)"M" e>c | {Bc}B2 {F}G4 |
G3/2F/ (E<C) (E>G) | {E}FD/F/ (E<C) E>G | (c>B c<)d e2 | {f}ge/g/ ^f/(d/f) {f}g>e |c/d/B {B}c4 :|
K:G
|:([dD]>f g<)a {a}b>(a | g>)f g/a/g "M"f>(d | c>)(B c<)d e>(f|g)e/g/ f/(d/f) e>c |{Bc}B2 {F}[G4G,4] |
([dD]>f g)<a b>(a | g>)f g/a/g "M"f>(d |c>)(B c<)d e>(f|g)e/g/ f/(d/f) {f}g>e |c/d/B {B}c4 :|
W:
W: M = mordant, i.e. a one finger-flick trill.
W:
W:Taught by Marit Larsen Westling, 2/19/05;  transcr. by Sarah Kirton, 2/21/05;
W: Scandia Festival, Petaluma CA
W:
W:Most of the 16ths & dotted 8ths on the second beats were more like triplets - i.e. 1/3 + 2/3.
W:So the rhythm was softer than what's written here by a little bit.  But most of the
W:rhythms were very angular.
W:
W:She referred to all of the (1/8 + 1/16 + 1/16) beats as "triplets."   But her transcriptions
W:from Mendocino summer '04 show these rhythms as above, which is close to how she plays
W:these.

